X: 39988
T: Three Guid Fellows Doon In Yon Glen
R: slip jig
M: 9/8
K: Gminor
|:G2G DGA B2d|F2F CFA c2d|GAB DGA BdB|cBA d2^F G3:|
g2G B2d bag|a2F A2c faf|bag fed cBA|BAG d2^F G2 d|
g2G B2d bag|a2F A2c faf|bag fed cBA|BAG d2^F G3||

